!!!COM:	Obrecht, Jacob
!!!CDT:	1458-1505/07/
!!!OPR:	Missa Adieu mes amours
!!!ONM:	3
!!!OTL:	Credo
!!!AGN:	Mass; Credo
!!!SCT:	Obr1001c
!!!SCA:	Obr1001c
!!!voices:	4
**kern	**kern	**kern	**kern
*staff4	*staff3	*staff2	*staff1
*Ivox	*Ivox	*Ivox	*Ivox
*I"Bassus	*I"Tenor	*I"Altus	*I"Superius
*I'B	*I'T	*I'A	*I'S
*>[A,B]	*>[A,B]	*>[A,B]	*>[A,B]
*>A	*>A	*>A	*>A
*clefF4	*clefGv2	*clefGv2	*clefG2
*k[b-]	*k[b-]	*k[b-]	*k[b-]
*M3/1	*M3/1	*M3/1	*M3/1
*met(O)	*met(O)	*met(O)	*met(O)
!!section: Patrem omnipotentem
!!!OMD: Patrem omnipotentem
=1-	=1-	=1-	=1-
0D	0.r	1r	0a
.	.	1r	.
1G	.	[1d	1b-
=2	=2	=2	=2
2F\	0.r	1d]	1a
1D	.	.	.
.	.	1e-i	1r
2C/	.	.	.
2.D\	.	1d	1a
8E\L	.	.	.
8F\J	.	.	.
=3	=3	=3	=3
2G\	0.r	1d	2g/
2D\	.	.	2.a/
1E-i	.	2B-\	.
.	.	.	4g/
.	.	2c\	1g
1D	.	1d	.
.	.	.	2f#i/
=4	=4	=4	=4
2C/	0.r	2e-i\	0g
2BB-/	.	1d	.
1C	.	.	.
.	.	1c	.
1D	.	.	1r
.	.	2Bni\	.
=5	=5	=5	=5
0.Cl;	0.Gl;	0.cl;	0.gl;
=6	=6	=6	=6
0.r	0.r	2.G/	1r
.	.	4A/	.
.	.	2B-\	1r
.	.	2B-\	.
.	.	2.c\	2.g/
.	.	4B-\	4a/
=7	=7	=7	=7
0.r	0.r	2G/	2b-\
.	.	2G/	2b-\
.	.	2.A/	2.cc\
.	.	4G/	4b-\
.	.	2E/	2g/
.	.	2E/	2g/
=8	=8	=8	=8
0.r	0.r	2.F/	2.a/
.	.	4E/	4g/
.	.	1C	2e/
.	.	.	2e/
.	.	2D/	2.f/
.	.	2F/	.
.	.	.	4e/
=9	=9	=9	=9
0.r	0.r	1E	1c
.	.	2D/	2d/
.	.	2.A/	2f/
.	.	.	1e
.	.	4B-\	.
.	.	2c\	.
=10	=10	=10	=10
0.r	0.r	2d\	2d/
.	.	2.e\	2.g/
.	.	4d\	4f/
.	.	4c\	4e/
.	.	4Bni\	4d/
.	.	4d\	1e
.	.	2c#i\	.
.	.	4Bni\	.
=11	=11	=11	=11
0.r	0.r	1d	1d
.	.	1r	1.a
.	.	[1d	.
.	.	.	2a/
=12	=12	=12	=12
0.r	0.r	2d\]	2b-\
.	.	2d\	2b-\
.	.	2e-i\	1g
.	.	2e-i\	.
.	.	1c	[1a
=13	=13	=13	=13
0.r	0.r	1.d	2a/]
.	.	.	2a/
.	.	.	1f
.	.	2d\	.
.	.	1B-	[1g
=14	=14	=14	=14
0.r	0.r	1.c	2g/]
.	.	.	1.e
.	.	1.A	.
.	.	.	2.f/
.	.	.	4e/
=15	=15	=15	=15
0.r	0.r	2.B-\	2d/
.	.	.	2e/
.	.	8A/L	.
.	.	8G/J	.
.	.	2F/	2c/
.	.	2A/	1f
.	.	[1G	.
.	.	.	2e/
=16	=16	=16	=16
0.r	0.r	2G/]	2d/
.	.	2.A/	2.c/
.	.	4G/	4B-/
.	.	1G	4A/
.	.	.	4G/
.	.	.	1A
.	.	2F#i/	.
=17	=17	=17	=17
0.r	0.r	2.G/	4G/
.	.	.	4A/
.	.	.	4B-/
.	.	4A/	4c/
.	.	4B-\	4d/
.	.	4c\	4e/
.	.	2d\	4f/
.	.	.	4g/
.	.	4c\	4a/
.	.	4d\	4b-\
.	.	4e\	4cc\
.	.	4f\	4dd\
=18	=18	=18	=18
0.r	0.r	2d\	2b-\
.	.	2.c\	2.a/
.	.	4d\	4g/
.	.	2B-\	1g
.	.	1A	.
.	.	.	2f#i/
=19	=19	=19	=19
0.GG	0.r	2.G/	0.g
.	.	4A/	.
.	.	4B-\	.
.	.	4G/	.
.	.	1c	.
.	.	2Bni\	.
=20	=20	=20	=20
[0.C	[0.G	0c	1r
.	.	.	1r
.	.	1r	2e/
.	.	.	2f/
=21	=21	=21	=21
0.C]	0.G]	1.e	0g
.	.	2c\	.
.	.	1c	1e
=22	=22	=22	=22
0.GG	0.B-	1d	2d/
.	.	.	2.dd\
.	.	2B-\	.
.	.	.	4cc\
.	.	1d	4b-\
.	.	.	4a/
.	.	.	1g
.	.	2e\	.
=23	=23	=23	=23
1D	[0.A	2.f\	2a/
.	.	.	1f
.	.	4e\	.
1.F	.	1c	.
.	.	.	4e/
.	.	.	4d/
.	.	1r	2c/
4E\	.	.	[2cc\
4D\	.	.	.
=24	=24	=24	=24
2C/	0.A]	1.c	4cc\]
.	.	.	4b-\
2.F\	.	.	4a/
.	.	.	4g/
.	.	.	2f/
4E\	.	.	.
4D\	.	2.d\	1g
4C/	.	.	.
1D	.	.	.
.	.	4c\	.
.	.	2A/	2f#i/
=25	=25	=25	=25
2GG/	0.G	2B-\	1g
2C/	.	2c\	.
2BB-/	.	2d\	2r
1GG	.	1B-	1d
2G\	.	4A/	4c/
.	.	4G/	4B-/
=26	=26	=26	=26
2F\	[0.d	2A/	2A/
2D\	.	2.B-\	1d
1G	.	.	.
.	.	4G/	.
.	.	1G	4c/
.	.	.	4B-/
1D	.	.	1A
.	.	2F#i/	.
=27	=27	=27	=27
1GG	0.d_	1.G	2G/
.	.	.	2.g/
2GG/	.	.	.
.	.	.	4a/
2.GG/	.	2.d\	2.b-\
4AA/	.	4c\	4a/
4BB-/	.	2B-\	2g/
4C/	.	.	.
=28	=28	=28	=28
2.D\	0.d_	2A/	2f/
.	.	2.d\	2b-\
4E\	.	.	.
2F\	.	.	2a/
.	.	4c\	.
2G\	.	2B-\	1g
1D	.	1A	.
.	.	.	2f#i/
=29	=29	=29	=29
0.GG	0.d]	0.G	0g
.	.	.	1d
=30	=30	=30	=30
2C/	0.r	2r	0.r
2BB-/	.	2G/	.
2D\	.	2F/	.
2C/	.	2A/	.
2BB-/	.	2G/	.
[2AA/	.	2F/	.
=31	=31	=31	=31
1AA]	0.r	2E/	0.r
.	.	2F/	.
2BB-/	.	2D/	.
2GG/	.	2E/	.
2AA/	.	2F/	.
2BB-/	.	2G/	.
=32	=32	=32	=32
2C/	0.r	2E/	0.r
2AA/	.	2F/	.
2BB-/	.	2G/	.
2C/	.	2A/	.
2D\	.	2F/	.
2BB-/	.	2G/	.
=33	=33	=33	=33
2C/	0.r	2A/	0.r
1D	.	2.B-\	.
.	.	4A/	.
2C/	.	1A	.
1BB-	.	.	.
.	.	2G/	.
=34	=34	=34	=34
2.AA/	0.r	1A	0.r
4BB-/	.	.	.
2C/	.	1r	.
2.D\	.	.	.
.	.	1A	.
4C/	.	.	.
4BB-/	.	.	.
4AA/	.	.	.
=35	=35	=35	=35
2GG/	0.r	0B-	0.r
2D\	.	.	.
4E-i\	.	.	.
4D\	.	.	.
1G	.	.	.
.	.	1A	.
2F\	.	.	.
=36	=36	=36	=36
2E-i\	0.r	2G/	0.r
2C/	.	1A	.
1D	.	.	.
.	.	4G/	.
.	.	4F/	.
2BB-/	.	2B-\	.
[2C/	.	2A/	.
=37	=37	=37	=37
4C/]	0.r	2G/	0.r
4BB-/	.	.	.
2AA/	.	2c\	.
2GG/	.	2B-\	.
2C/	.	2A/	.
2BB-/	.	2.d\	.
2AA/	.	.	.
.	.	4c\	.
=38	=38	=38	=38
2D\	0.r	4B-\	0.r
.	.	4A/	.
1D	.	2.B-\	.
.	.	4G/	.
4C/	.	1G	.
4BB-/	.	.	.
2C/	.	.	.
2D\	.	2F/	.
=39	=39	=39	=39
2.E-\	0.r	1.G	0.r
4D\	.	.	.
2BB-/	.	.	.
1C	.	4F/	.
.	.	4E/	.
.	.	1D	.
2BBni/	.	.	.
=40	=40	=40	=40
0C	[0.c	1C	2g/
.	.	.	2g/
.	.	1r	2g/
.	.	.	2a/
2C/	.	2G/	1g
2C/	.	2G/	.
=41	=41	=41	=41
2C/	0.c]	2G/	1e
2C/	.	2G/	.
1F	.	1A	2f/
.	.	.	2f/
1C	.	[1G	2e/
.	.	.	2f/
=42	=42	=42	=42
2.C/	0c	1G]	1g
4D\	.	.	.
2E\	.	1r	2e/
2F\	.	.	1a
1G	1B-	1d	.
.	.	.	2g/
=43	=43	=43	=43
2F\	0.A	2.d\	1a
1D	.	.	.
.	.	4e\	.
.	.	2.f\	1r
4C/	.	.	.
4BB-/	.	8e\L	.
.	.	8d\J	.
2C/	.	2e\	1a
2D\	.	2d\	.
=44	=44	=44	=44
0.GG	0.G	1.d	0b-
.	.	2.B-\	.
.	.	.	1b-
.	.	4c\	.
.	.	4d\	.
.	.	4e\	.
=45	=45	=45	=45
0.D	[0.F	2f\	1.a
.	.	1d	.
.	.	4c\	2.f/
.	.	4B-\	.
.	.	1A	.
.	.	.	4g/
.	.	.	2a/
=46	=46	=46	=46
0.BB-	0.F]	2B-\	2.d/
.	.	2.d\	.
.	.	.	4e/
.	.	.	2f/
.	.	4e\	.
.	.	2f\	2.B-/
.	.	2.B-\	.
.	.	.	4c/
.	.	.	2d/
.	.	4c\	.
=47	=47	=47	=47
2r	0.r	2d\	2.G/
2.GG/	.	2G/	.
.	.	.	4A/
.	.	1B-	4B-/
4AA/	.	.	4c/
4BB-/	.	.	2.d/
4C/	.	.	.
2.D\	.	4A/	.
.	.	4G/	4e/
.	.	2F/	4f/
4E\	.	.	4g/
=48	=48	=48	=48
4F\	0.r	0.r	2a/
4E\	.	.	.
2.G\	.	.	2.b-\
4F\	.	.	4a/
4E\	.	.	2.cc\
4D\	.	.	.
2C/	.	.	.
.	.	.	4b-\
[2D\	.	.	4a/
.	.	.	4g/
=49	=49	=49	=49
4D\]	0.r	0.r	2f/
4C/	.	.	.
2.E-\	.	.	2.g/
4D\	.	.	4f/
4C/	.	.	2.a/
4BB-/	.	.	.
2AA/	.	.	.
.	.	.	4g/
[2BB-/	.	.	4f/
.	.	.	4e/
=50	=50	=50	=50
4BB-/]	0.r	1r	2d/
4AA/	.	.	.
2.C/	.	.	2.e/
.	.	1r	.
4BB-/	.	.	4d/
4AA/	.	.	2.f/
4GG/	.	.	.
1FF	.	1A	.
.	.	.	4e/
.	.	.	4d/
.	.	.	4c/
=51	=51	=51	=51
1r	0.r	2G/	2B-/
.	.	1A	2.c/
2.F\	.	.	.
.	.	.	4B-/
.	.	2B-\	2.d/
4E\	.	.	.
2F\	.	2A/	.
.	.	.	4c/
2D\	.	[2B-\	4B-/
.	.	.	4A/
=52	=52	=52	=52
2.E-i\	0.r	4B-\]	2G/
.	.	4c\	.
.	.	2d\	2.A/
4D\	.	.	.
2E-i\	.	2B-\	.
.	.	.	4G/
2C/	.	2c\	1g
1D	.	1A	.
.	.	.	2f#i/
=53	=53	=53	=53
0.GG	0G	2.G/	1g
.	.	4F/	.
.	.	2D/	1r
.	.	2E-i/	.
.	[1B-	1D	1g
=54	=54	=54	=54
1r	1B-]	[0.d	1.f
1D	0A	.	.
.	.	.	2g/
1D	.	.	1a
=55	=55	=55	=55
2GG/	2.G/	0d]	1.b-
1G	.	.	.
.	4A/	.	.
.	4B-\	.	.
.	4c\	.	.
2F\	1d	.	2a/
1E-i	.	1G	2b-\
.	2c\	.	4a/
.	.	.	4g/
=56	=56	=56	=56
2.D\	0.d	1A	1f
4E\	.	.	.
2F\	.	1r	1r
2.G\	.	.	.
.	.	1r	1r
4A\	.	.	.
2B-\	.	.	.
=57	=57	=57	=57
2A\	2f\	0.r	0.r
2G\	2e\	.	.
2B-\	2d\	.	.
2A\	2f\	.	.
2G\	2e\	.	.
2B-\	2d\	.	.
=58	=58	=58	=58
1A	2f\	1r	1r
.	2.e\	.	.
2G\	.	1r	1r
.	4d\	.	.
2F\	1d	.	.
1E	.	1G	1g
.	2c#i\	.	.
=59	=59	=59	=59
2.D\	0.d	1.A	2.f/
4E\	.	.	4g/
2F\	.	.	2a/
1G	.	2G/	2.b-\
.	.	1B-	.
.	.	.	4cc\
4F\	.	.	[2dd\
4E\	.	.	.
=60	=60	=60	=60
2D\	1.d	2A/	4dd\]
.	.	.	4cc\
2G\	.	2.B-\	4b-\
.	.	.	4a/
2D\	.	.	1.b-
.	.	4c\	.
2G\	2B-\	4d\	.
.	.	4e\	.
1F	1c	1f	.
.	.	.	2a/
=61	=61	=61	=61
2BB-/	0B-	1d	1b-
2.D\	.	.	.
.	.	2.D/	2r
4C/	.	.	.
2BB-/	.	.	2.dd\
.	.	4E/	.
2AA/	2r	2F/	.
.	.	.	4cc\
2GG/	[2d\	2G/	2b-\
=62	=62	=62	=62
2.D\	4d\]	2F/	2a/
.	4c\	.	.
.	2B-\	2G/	2g/
4E\	.	.	.
2F\	2A/	1r	2cc\
2G\	2G/	.	2b-\
2F\	2c\	1r	2a/
2G\	2B-\	.	[2dd\
=63	=63	=63	=63
2.D\	2A/	0.d	4dd\]
.	.	.	4cc\
.	2.d\	.	2b-\
4E\	.	.	.
2F\	.	.	4.a/
.	4c\	.	.
.	.	.	8g/
2G\	2B-\	.	1g
1D	1A	.	.
.	.	.	2f#i/
=64	=64	=64	=64
0.GGl	0.Gl	0.dl	0.gl
!!LO:LB:i:g=z
=65||	=65||	=65||	=65||
*>B	*>B	*>B	*>B
*clefF4	*clefGv2	*clefGv2	*clefG2
*k[b-]	*k[b-]	*k[b-]	*k[b-]
*M2/1	*M2/1	*M2/1	*M2/1
*met(C|)	*met(C|)	*met(C|)	*met(C|)
!!section: Et incarnatus est
!!!OMD: Et incarnatus est
[0C	[0G	1.c	0r
.	.	[2e-\	.
=66	=66	=66	=66
1.C]	0G_	2e-\]	0r
.	.	4d\	.
.	.	4c\	.
.	.	2.e-i\	.
[2E-\	.	.	.
.	.	4d\	.
=67	=67	=67	=67
2E-\]	0G_	1.B-	1.g
4D\	.	.	.
4C/	.	.	.
2.E-i\	.	.	.
.	.	2c\	[2b-\
4D\	.	.	.
=68	=68	=68	=68
1BB-	0G]	1d	4b-\]
.	.	.	4a/
.	.	.	4g/
.	.	.	4f/
1C	.	1c	1e
=69	=69	=69	=69
1D	[0d	2A/	1f
.	.	1B-	.
1GG	.	.	1g
.	.	4A/	.
.	.	4G/	.
=70	=70	=70	=70
2r	0d_	2F/	2a/
2GG/	.	2B-\	1g
1D	.	1A	.
.	.	.	2f/
=71	=71	=71	=71
2GG/	0d_	1G	1b-
2G\	.	.	.
2F\	.	2r	2a/
[2G\	.	2G/	[2b-\
=72	=72	=72	=72
4G\]	0d]	1B-	2b-\]
4F\	.	.	.
2G\	.	.	4a/
.	.	.	4g/
1D	.	1A	1f
=73	=73	=73	=73
2r	[0c	1F	1a
2F\	.	.	.
2E\	.	2G/	2g/
[2F\	.	2F/	[2a/
=74	=74	=74	=74
4F\]	0c_	1A	2a/]
4E\	.	.	.
2F\	.	.	4g/
.	.	.	4f/
1C	.	1G	1e
=75	=75	=75	=75
2r	0c_	2F/	1f
2F\	.	2A/	.
2E\	.	2G/	1r
[2F\	.	[2A/	.
=76	=76	=76	=76
2F\]	0c]	2A/]	0a
4E\	.	4G/	.
4D\	.	4F/	.
1C	.	1E	.
=77	=77	=77	=77
0BB-	[0d	2F/	1.b-
.	.	2G/	.
.	.	2F/	.
.	.	[2B-\	[2dd\
=78	=78	=78	=78
0GG	0d_	4B-\]	4dd\]
.	.	4A/	4cc\
.	.	4G/	4b-\
.	.	4F/	4a/
.	.	2.G/	2b-\
.	.	.	4a/
.	.	4F/	4g/
=79	=79	=79	=79
[0BB-	0d_	0D	[0f
=80	=80	=80	=80
0BB-]	0d]	1.B-	0f]
.	.	[2d\	.
=81	=81	=81	=81
0D	0d	4d\]	0f
.	.	4c\	.
.	.	4B-\	.
.	.	4A/	.
.	.	2.B-\	.
.	.	4A/	.
=82	=82	=82	=82
1D	0r	1F	1f
1E-i	.	2r	1g
.	.	2G/	.
=83	=83	=83	=83
2D\	0r	2A/	2f/
2E-i\	.	2G/	2g/
2D\	.	2A/	2f/
[2E-i\	.	2G/	[2g/
=84	=84	=84	=84
2E-\]	0r	2B-\	2g/]
4D\	.	2c\	4f#i/
4C/	.	.	4e/
1D	.	1A	1f#i
=85	=85	=85	=85
1GG	0r	1G	1g
1r	.	1r	1r
=86	=86	=86	=86
0D	[0d	[0F	0a
=87	=87	=87	=87
0BB-	0d]	0F]	0b-
=88	=88	=88	=88
0F	0c	0A	0a
=89	=89	=89	=89
1BB-	[0d	1.B-	0f
[1D	.	.	.
.	.	[2A/	.
=90	=90	=90	=90
2D\]	0d]	4A/]	0a
.	.	4G/	.
2E\	.	4F/	.
.	.	4E/	.
1F	.	2D/	.
.	.	[2d\	.
=91	=91	=91	=91
1G	0G	2d\]	2g/
.	.	4c\	1b-
.	.	4B-\	.
1E-i	.	1c	.
.	.	.	4a/
.	.	.	4g/
=92	=92	=92	=92
0D	0A	[0d	2f/
.	.	.	1g
.	.	.	2f#i/
=93	=93	=93	=93
[0GG	[0G	0d]	[0g
=94	=94	=94	=94
0GG]	0G]	0r	0g]
=95	=95	=95	=95
0r	0r	1d	0r
.	.	2e-\	.
.	.	[2d\	.
=96	=96	=96	=96
0r	0r	2d\]	0r
.	.	2c\	.
.	.	2B-\	.
.	.	2A/	.
=97	=97	=97	=97
1G	0r	1G	0r
2A\	.	2F/	.
[2G\	.	2E/	.
=98	=98	=98	=98
2G\]	0r	1D	0r
2F\	.	.	.
2E\	.	2C/	.
2D\	.	2F/	.
=99	=99	=99	=99
1C	0r	2E/	0r
.	.	1A	.
1BB-	.	.	.
.	.	2G/	.
=100	=100	=100	=100
2AA/	0r	1.A	0r
1F	.	.	.
[2E\	.	[2G/	.
=101	=101	=101	=101
4E\]	0r	4G/]	0r
4D\	.	4A/	.
1D	.	2F/	.
.	.	1E	.
2C#i/	.	.	.
=102	=102	=102	=102
[0D	0r	0D	1a
.	.	.	2b-\
.	.	.	[2a/
=103	=103	=103	=103
0D]	0r	0r	2a/]
.	.	.	2g/
.	.	.	2f/
.	.	.	2e/
=104	=104	=104	=104
1D	0r	0r	1d
2E-i\	.	.	2c/
[2D\	.	.	2B-/
=105	=105	=105	=105
2D\]	0r	0r	1A
2C/	.	.	.
2BB-/	.	.	1G
2AA/	.	.	.
=106	=106	=106	=106
1GG	0r	0r	0r
2FF/	.	.	.
[2GG/	.	.	.
=107	=107	=107	=107
4GG/]	0r	2r	0r
4AA/	.	.	.
4BB-/	.	2G/	.
4C/	.	.	.
2AA/	.	2F/	.
2GG/	.	[2G/	.
=108	=108	=108	=108
0r	0r	4G/]	2r
.	.	4A/	.
.	.	4B-\	2g/
.	.	4c\	.
.	.	2A/	2f/
.	.	2G/	[2g/
=109	=109	=109	=109
2r	0r	1d	4g/]
.	.	.	4a/
2GG/	.	.	4b-\
.	.	.	4cc\
2FF/	.	1r	2a/
[2GG/	.	.	2g/
=110	=110	=110	=110
4GG/]	0r	2r	1dd
4AA/	.	.	.
4BB-/	.	2G/	.
4C/	.	.	.
2AA/	.	2F/	1r
2GG/	.	[2G/	.
=111	=111	=111	=111
0r	0r	4G/]	2r
.	.	4A/	.
.	.	4B-\	2g/
.	.	4c\	.
.	.	2A/	2f/
.	.	2G/	[2g/
=112	=112	=112	=112
2r	0r	2.B-\	4g/]
.	.	.	4a/
2GG/	.	.	4b-\
.	.	8A/L	4cc\
.	.	8B-/J	.
2FF/	.	2c\	2a/
[2GG/	.	[2B-\	2g/
=113	=113	=113	=113
4GG/]	0r	2B-\]	2.b-\
4AA/	.	.	.
4BB-/	.	4A/	.
4C/	.	4G/	8a/L
.	.	.	8b-/J
2AA/	.	2F/	2cc\
2GG/	.	2G/	[2b-\
=114	=114	=114	=114
2G\	0r	2B-\	2b-\]
2C/	.	2c\	4a/
.	.	.	4g/
1D	.	1A	1f#i
=115	=115	=115	=115
2GG/	0r	1G	2.g/
2BB-/	.	.	.
.	.	.	4f/
2C/	.	1r	2e/
2D\	.	.	[2d/
=116	=116	=116	=116
2GG/	0r	2.d\	4d/]
.	.	.	4c/
2BB-/	.	.	2B-/
.	.	8c\L	.
.	.	8d\J	.
2C/	.	2e-i\	2A/
2D\	.	[2d\	[2B-/
=117	=117	=117	=117
2GG/	0r	2d\]	4B-/]
.	.	.	4A/
2BB-/	.	4c\	1G
.	.	4B-\	.
2C/	.	1A	.
2D\	.	.	2F#i/
=118	=118	=118	=118
1GG	0G	1G	0G
[1G	.	[1B-	.
=119	=119	=119	=119
1G]	1d	1B-]	1g
1F	[1d	1A	1a
=120	=120	=120	=120
0E-i	2d\]	1.G	2b-\
.	4c\	.	2.cc\
.	4B-\	.	.
.	1c	.	.
.	.	.	4b-\
.	.	4F/	4a/
.	.	4G/	4g/
=121	=121	=121	=121
[0D	[0d	0A	1.f
.	.	.	2g/
=122	=122	=122	=122
1D]	0d]	1F	2a/
.	.	.	2f/
1BB-	.	[1f	[1b-
=123	=123	=123	=123
0F	0c	0f]	2b-\]
.	.	.	4a/
.	.	.	4g/
.	.	.	1a
=124	=124	=124	=124
1G	1B-	1d	1b-
1C	[1c	[1e-	[1a
=125	=125	=125	=125
0E-	2c\]	2e-\]	2a/]
.	2B-\	2d\	2g/
.	2A/	2c\	[1g
.	2G/	2B-\	.
=126	=126	=126	=126
0D	0A	[0d	1g]
.	.	.	1f#i
=127	=127	=127	=127
0GG	[0G	0d]	[0g
=128	=128	=128	=128
2GG/	0G]	2d\	0g]
2C/	.	2.e-i\	.
2BB-/	.	.	.
.	.	4d\	.
2C/	.	2c\	.
=129	=129	=129	=129
1GG	0r	1d	1g
1G	.	1e	1b-
=130	=130	=130	=130
1F	0r	1f	1a
1G	.	1d	1g
=131	=131	=131	=131
0GG	1G	2r	0dd
.	.	2.B-\	.
.	1B-	.	.
.	.	4c\	.
.	.	4d\	.
.	.	4e\	.
=132	=132	=132	=132
1r	1A	1f	1.cc
1G	1G	1e	.
.	.	.	2b-\
=133	=133	=133	=133
1F	[0d	2f\	1a
.	.	1d	.
1G	.	.	1g
.	.	4c\	.
.	.	4B-\	.
=134	=134	=134	=134
2D\	0d]	2A/	1f
2.BB-/	.	2B-\	.
.	.	1F	1b-
4C/	.	.	.
4D\	.	.	.
4E\	.	.	.
=135	=135	=135	=135
2F\	1.c	1r	2a/
2.C/	.	.	2.g/
.	.	[1c	.
4D\	.	.	4f/
2E\	2B-\	.	4e/
.	.	.	4d/
=136	=136	=136	=136
1F	1A	1c]	2c/
.	.	.	1f
1C	1G	1c	.
.	.	.	2e/
=137	=137	=137	=137
1D	0F	2A/	0f
.	.	2.d\	.
1F	.	.	.
.	.	4c\	.
.	.	4B-\	.
.	.	4A/	.
=138	=138	=138	=138
1E	0r	1G	0r
1D	.	1A	.
=139	=139	=139	=139
0A	0r	1D	0r
.	.	1F	.
=140	=140	=140	=140
1.G	0r	1E	0r
.	.	2D/	.
2F\	.	[2f\	.
=141	=141	=141	=141
2D\	1r	4f\]	1r
.	.	4e\	.
2F\	.	1d	.
1E	1G	.	2r
.	.	2c#i\	[2g/
=142	=142	=142	=142
0D	1B-	0d	2g/]
.	.	.	4f/
.	.	.	4e/
.	1A	.	2.f/
.	.	.	8g/L
.	.	.	8a/J
=143	=143	=143	=143
0GG	1G	1.B-	1b-
.	1d	.	2.B-/
.	.	2G/	.
.	.	.	8c/L
.	.	.	8d/J
=144	=144	=144	=144
1C	2r	0G	1e-i
.	1c	.	.
2r	.	.	1d
[2G\	2B-\	.	.
=145	=145	=145	=145
4G\]	2G/	0r	2g/
4F\	.	.	.
2G\	2B-\	.	1g
1D	1A	.	.
.	.	.	2f#i/
=146	=146	=146	=146
0GG	0G	1G	1.g
.	.	1d	.
.	.	.	2f/
=147	=147	=147	=147
1D	0r	1B-	1d
1A	.	1c	2c/
.	.	.	[2cc\
=148	=148	=148	=148
1F	0r	0d	2cc\]
.	.	.	4b-\
.	.	.	4a/
1G	.	.	4b-\
.	.	.	4a/
.	.	.	4g/
.	.	.	4f/
=149	=149	=149	=149
1.A	0r	1.c	1e
.	.	.	1e
2G\	.	2B-\	.
=150	=150	=150	=150
1.G	1G	2G/	1.d
.	.	1B-	.
.	1d	.	.
2F\	.	4A/	2e/
.	.	4G/	.
=151	=151	=151	=151
1D	1d	1A	2.f/
.	.	.	8e/L
.	.	.	8f/J
1E	1c	1G	2g/
.	.	.	2e/
=152	=152	=152	=152
0D	1.d	1r	4f/
.	.	.	4e/
.	.	.	4d/
.	.	.	4c/
.	.	2r	1B-
.	2c\	2d\	.
=153	=153	=153	=153
2.A\	1.c	2.e\	1c
4G\	.	4f\	.
2E\	.	2g\	1r
2D\	2B-\	[2a\	.
=154	=154	=154	=154
1E-i	1G	2a\]	0r
.	.	1g	.
1D	1A	.	.
.	.	2f#i\	.
=155	=155	=155	=155
0r	0G	1.g	1g
.	.	.	1dd
.	.	2f\	.
=156	=156	=156	=156
0r	0r	2d\	1dd
.	.	2f\	.
.	.	1e	1cc
=157	=157	=157	=157
0r	1G	0d	[0dd
.	1d	.	.
=158	=158	=158	=158
1D	1B-	0r	1dd]
1A	1c	.	[1cc
=159	=159	=159	=159
1F	0d	1r	1cc]
1G	.	1g	1b-
=160	=160	=160	=160
1A	1.c	2e\	2.cc\
.	.	2.f\	.
.	.	.	4b-\
2r	.	.	4a/
.	.	4e\	4g/
[2G\	2B-\	4d\	[2b-\
.	.	4c\	.
=161	=161	=161	=161
2G\]	1G	2B-\	4b-\]
.	.	.	4a/
2E-i\	.	2c\	1g
1D	1A	2A/	.
.	.	[2d\	2f#i/
=162	=162	=162	=162
0E-i	0G	2d\]	2g/
.	.	4c\	2.b-\
.	.	4B-\	.
.	.	1c	.
.	.	.	4a/
.	.	.	[2g/
=163	=163	=163	=163
0D	0A	0d	2g/]
.	.	.	4f#i/
.	.	.	4e/
.	.	.	1f#i
=164	=164	=164	=164
0GG	0G	1r	0g
.	.	1G	.
=165	=165	=165	=165
1D	0r	1B-	0r
1F	.	1A	.
=166	=166	=166	=166
1E	0r	1G	0r
1D	.	1d	.
=167	=167	=167	=167
0A	0r	2e\	0r
.	.	2.f\	.
.	.	4e\	.
.	.	4d\	.
.	.	4c\	.
=168	=168	=168	=168
0G	0r	2e-\	0r
.	.	2.d\	.
.	.	4c\	.
.	.	2B-\	.
=169	=169	=169	=169
1F	0r	2A/	0r
.	.	2.c\	.
1E	.	.	.
.	.	4d\	.
.	.	2e\	.
=170	=170	=170	=170
0D	0r	4f\	0r
.	.	4e\	.
.	.	4d\	.
.	.	4c\	.
.	.	1Bni	.
=171	=171	=171	=171
1C	1G	1c	1r
1r	1B-	1r	1d
=172	=172	=172	=172
0r	1A	0r	1f
.	1G	.	1e
=173	=173	=173	=173
0r	0d	0r	1d
.	.	.	1a
=174	=174	=174	=174
0r	0c	0r	2r
.	.	.	1a
.	.	.	4g/
.	.	.	4f/
=175	=175	=175	=175
0r	1B-	0r	4g/
.	.	.	4f/
.	.	.	4e/
.	.	.	4d/
.	1A	.	2c/
.	.	.	[2f/
=176	=176	=176	=176
0C	0G	1r	2f/]
.	.	.	4e/
.	.	.	4d/
.	.	1c	1e
=177	=177	=177	=177
1D	0F	2.A/	1f
.	.	4B-\	.
1F	.	2A/	2r
.	.	[2d\	2f/
=178	=178	=178	=178
1E	0r	2d\]	2.g/
.	.	2c\	.
.	.	.	4a/
1D	.	1d	2b-\
.	.	.	[2a/
=179	=179	=179	=179
0A	0r	2c\	2a/]
.	.	1c	4g/
.	.	.	4f/
.	.	.	2e/
.	.	4B-\	2a/
.	.	4A/	.
=180	=180	=180	=180
1.G	1G	2B-\	1.d
.	.	1B-	.
.	1B-	.	.
2F\	.	4A/	[2f/
.	.	4G/	.
=181	=181	=181	=181
1D	1A	1F	2f/]
.	.	.	4e/
.	.	.	4d/
1E	1G	1G	1c
=182	=182	=182	=182
0D	0d	1F	2r
.	.	.	2.f/
.	.	2r	.
.	.	.	4g/
.	.	2f\	4a/
.	.	.	4b-\
=183	=183	=183	=183
1A	1.c	2e\	2.cc\
.	.	2.f\	.
.	.	.	4b-\
2F\	.	.	4a/
.	.	4e\	4g/
[2G\	2B-\	[2d\	[2b-\
=184	=184	=184	=184
2G\]	1G	2d\]	4b-\]
.	.	.	4a/
2E-i\	.	2c\	1g
1D	1A	[1d	.
.	.	.	2f#i/
=185	=185	=185	=185
[0GGl	[0Gl	2d\]	[0gl
.	.	1e-i	.
.	.	4d\	.
.	.	4c\	.
=186	=186	=186	=186
0GG]	0G]	0dl	0g]
==	==	==	==
*-	*-	*-	*-
!!!RDF**kern: l=long note in original notation
!!!RDF**kern: i=editorial accidental
!!!ENC:	Chris Gage 09-06-2012
!!!END:	2013/05/07/
!!!EED:	Jesse Rodin
!!!EEV:	2014/01/03/
!!!ONB:	Translated from MusicXML and edited on 2014/01/03/ by Craig Sapp
!!muse2ps: T^@{OPR}^u^@{ONM}{. }@{OTL}^C^@{COM}^i2I150v85,85,85,150Q16
